X:1
T:[ID 3-31]
T:[ID 3-31]
T:Bezeichnung standardisiert: Adagio Adagio 20.
T:Urheber unbekannt Datum in der hier transkribierten schriftlichen Quelle: 1767
C:Urheber unbekannt
C:Datum in der hier transkribierten schriftlichen Quelle: 1767
%%score 1 2
L:1/8
M:4/4
K:D
V:1 treble nm="Primo"
V:2 treble nm="Secondo"
V:1
 d'/c'/d'/ | aaaa Ta3/2f/4g/4aa | b>d' aggf z A | B>d AGGF z f | %4
 e/e/e/f/ g/f/f/e/ c'/c'/c'/f'/ e'/d'/d'/c'/ | d'2 (3d'/c'/b/ (3a/g/f/ fe z e | %6
 f(3d'/c'/b/ a^g ae' z e | f>ba^g{g} a2 z/ :: a/^g/a/ | eeee Te3/2c/4d/4 ee | %10
 f>a eddc z/ d'/c'/d'/ | aaaa Ta3/2f/4g/4ad | =c'a Ta3/2g/4a/4 bg g3/2f/4g/4 | %13
 af f3/2e/4f/4 ge e3/2d/4e/4 | f2 f/d/a/f/ fe g2 | c'/d'/d'/e'/ e'/d'/d'/c'/ e/f/f/g/ g/f/f/e/ | %16
 d(3b/a/g/ fedd' z d' | b3/2a/4g/4 fe d2 z/ :| %18
V:2
 !fermata!z3/2 | ffff f3/2d/4e/4ff | g>f feed z F | G>F FEED z d | %4
 c/c/c/d/ e/d/d/c/ e/e/e/f/ g/f/f/e/ | b2 (3b/a/g/ (3f/e/d/ dc z c | d(3f/e/d/ cBcc z c | %7
 d>dcB c2 z/ :: z3/2 | cccc c3/2A/4B/4cc | d>c cBBA z/ z3/2 | ffff f3/2d/4e/4ff | %12
 af f3/2e/4f/4 ge e3/2d/4e/4 | fd d3/2c/4d/4 ec c3/2B/4c/4 | d2 a/g/f/d/ dc Te2 | %15
 e/f/f/g/ g/f/f/e/ c/d/d/e/ e/d/d/c/ | f(3g/f/e/ dcFf z f | g3/2f/4e/4 dG F2 z/ :| %18

